ix/wallet-2_linear.svg

<svg viewBox="0 0 24 24" fill="none" xmlns="http://www.w3.org/2000/svg" height="1em" width="1em">
  <path d="M13 9H7" stroke="#292D32" stroke-width="1.5" stroke-linecap="round" stroke-linejoin="round"/>
  <path d="M22 10.9699V13.03C22 13.58 21.56 14.0299 21 14.0499H19.0399C17.9599 14.0499 16.97 13.2599 16.88 12.1799C16.82 11.5499 17.0599 10.9599 17.4799 10.5499C17.8499 10.1699 18.36 9.94995 18.92 9.94995H21C21.56 9.96995 22 10.4199 22 10.9699Z" stroke="#292D32" stroke-width="1.5" stroke-linecap="round" stroke-linejoin="round"/>
  <path d="M17.48 10.55C17.06 10.96 16.82 11.55 16.88 12.18C16.97 13.26 17.96 14.05 19.04 14.05H21V15.5C21 18.5 19 20.5 16 20.5H7C4 20.5 2 18.5 2 15.5V8.5C2 5.78 3.64 3.88 6.19 3.56C6.45 3.52 6.72 3.5 7 3.5H16C16.26 3.5 16.51 3.50999 16.75 3.54999C19.33 3.84999 21 5.76 21 8.5V9.95001H18.92C18.36 9.95001 17.85 10.17 17.48 10.55Z" stroke="#292D32" stroke-width="1.5" stroke-linecap="round" stroke-linejoin="round"/>
</svg>

<svg viewBox="0 0 24 24" fill="none" xmlns="http://www.w3.org/2000/svg" height="1em" width="1em">
  <path d="M13 9H7m15 1.97v2.06c0 .55-.44 1-1 1.02h-1.96c-1.08 0-2.07-.79-2.16-1.87-.06-.63.18-1.22.6-1.63.37-.38.88-.6 1.44-.6H21c.56.02 1 .47 1 1.02Z" stroke="#292D32" stroke-width="1.5" stroke-linecap="round" stroke-linejoin="round"/>
  <path d="M17.48 10.55c-.42.41-.66 1-.6 1.63.09 1.08 1.08 1.87 2.16 1.87H21v1.45c0 3-2 5-5 5H7c-3 0-5-2-5-5v-7c0-2.72 1.64-4.62 4.19-4.94.26-.04.53-.06.81-.06h9c.26 0 .51.01.75.05C19.33 3.85 21 5.76 21 8.5v1.45h-2.08c-.56 0-1.07.22-1.44.6Z" stroke="#292D32" stroke-width="1.5" stroke-linecap="round" stroke-linejoin="round"/>
</svg>
